X: 260
T: the Boyne Water   #2
R: air, march
%S: s:3 b:16(8+8)
B: O'Neill's 1850 #260
O: F.O'Neill
Z: 1997 by John Chambers <jc@trillian.mit.edu>
Q: "Moderate"
M: C
L: 1/8
K: Ador
"^A"[|] AG |: E2e2 efge | dcBA   G2AB | c2BA  edcB |1 ABAG E3D :|2 A4 A2 |]
"^B"[| ^cd |  e2a2 a2b2 | a^ge^c d2cd | e2a2 ^gabg | a3^g e2 |]
"^A3"|| f2 | =gfga g2fe | dcBA   G2AB | c2BA  edcB | A4   A2 |]
